64x64/apps/adventure-capitalist.svg

<svg xmlns="http://www.w3.org/2000/svg" width="64" height="64" version="1.1">
 <path style="opacity:0.2;fill-rule:evenodd" d="M 31.462645,4.0002727 A 2.5,2.4971915 0 0 0 29,6.5323276 l 0,52.9351664 a 2.5,2.4971915 0 1 0 4.9995,0 l 0,-52.9351664 A 2.5,2.4971915 0 0 0 31.462645,4.0002727 Z"/>
 <path style="opacity:0.2" d="m 25.056641,8.9554838 0.291015,0.00781 c 0,0 -3.95702,-0.2956374 -8.302734,1.1464842 -2.172857,0.721061 -4.622128,1.92299 -6.65625,4.164062 C 8.35455,16.514916 7,19.848171 7,23.455484 c 0,3.607313 1.3548301,6.938522 3.384766,9.181641 2.029935,2.243119 4.473453,3.452095 6.644531,4.179687 4.342155,1.455185 8.300781,1.173828 8.300781,1.173828 l -0.242187,0.0059 6.90625,-0.04106 a 5.50055,5.50055 0 0 0 0.02148,0 5.50055,5.50055 0 0 0 0.05664,0 l 6.904296,-0.04102 a 5.50055,5.50055 0 0 0 0.40625,-0.01758 c 0,0 2.181484,-0.07552 3.976563,0.570313 0.897539,0.322918 1.519825,0.741588 1.898437,1.210937 C 45.636425,40.14749 46,40.735394 46,42.455484 c 0,0.974172 -0.102455,0.912049 -0.34375,1.152344 -0.241295,0.240294 -0.928606,0.654424 -1.910156,0.927734 -1.963101,0.54662 -4.361328,0.4375 -4.361328,0.4375 a 5.50055,5.50055 0 0 0 -0.441407,-0.01758 l -20.792968,0 a 5.50055,5.50055 0 1 0 0,11 l 20.792968,0 -0.439453,-0.01758 c 0,0 3.878509,0.394817 8.19336,-0.806641 2.157425,-0.600729 4.609719,-1.624339 6.722656,-3.728515 C 55.532859,49.298573 57,45.985156 57,42.455484 57,38.651764 55.793978,35.220978 53.818359,32.77189 51.842741,30.322803 49.325421,28.92402 47.083984,28.117593 42.601112,26.504739 38.503906,26.932047 38.503906,26.932046 l 0.408203,-0.01758 -6.90625,0.04102 a 5.50055,5.50055 0 0 0 -0.02148,0 5.50055,5.50055 0 0 0 -0.05664,0 l -6.904296,0.04102 a 5.50055,5.50055 0 0 0 -0.240235,0.0078 c 0,0 -2.322016,0.0296 -4.257812,-0.61914 C 19.557493,26.0608 18.863359,25.614619 18.539062,25.256265 18.214766,24.897912 18,24.681505 18,23.455484 c 0,-1.226021 0.215046,-1.434432 0.535156,-1.787109 0.32011,-0.352678 1.008491,-0.796582 1.97461,-1.117188 1.932237,-0.641211 4.253906,-0.603515 4.253906,-0.603515 a 5.50055,5.50055 0 0 0 0.292969,0.0078 l 20.443359,0 a 5.50055,5.50055 0 1 0 0,-11.0000002 l -20.443359,0 z"/>
 <path style="fill:none;stroke:#ff990f;stroke-width:11;stroke-linecap:round;stroke-linejoin:round" d="m 32.039336,31.5 6.904762,-0.04119 c 0,0 12.555902,-1.00643 12.555902,10.041189 0,9.007688 -12.555902,8 -12.555902,8 l -20.792958,0 m 13.809524,-18 -6.904762,0.04119 c 0,0 -12.555902,0.625479 -12.555902,-9.041188 0,-9.666667 12.555902,-9 12.555902,-9 L 45.5,13.5"/>
 <path style="opacity:0.1;fill:#f4f4f7" d="M 24.662109 7.984375 C 23.345492 7.9688264 20.304207 8.0727055 17.044922 9.1542969 C 14.872065 9.8753578 12.422794 11.077287 10.388672 13.318359 C 8.3545499 15.559435 7 18.892687 7 22.5 C 7 22.660605 7.0161732 22.817123 7.0214844 22.976562 C 7.13589 19.555481 8.4454838 16.414328 10.388672 14.273438 C 12.422794 12.032365 14.872065 10.830436 17.044922 10.109375 C 21.028493 8.7874302 24.537311 8.9228554 25.119141 8.9550781 L 45.5 8.9550781 A 5.50055 5.50055 0 0 1 51.052734 14.005859 A 5.50055 5.50055 0 0 0 45.5 8 L 25.119141 8 C 25.013353 7.9941413 24.954691 7.9878302 24.662109 7.984375 z M 18.025391 22.978516 C 18.01487 23.127133 18 23.25929 18 23.455078 C 18 24.681099 18.214766 24.897506 18.539062 25.255859 C 18.863359 25.614213 19.557488 26.0604 20.525391 26.384766 C 22.461187 27.033506 24.783203 27.003906 24.783203 27.003906 A 5.50055 5.50055 0 0 1 25.023438 26.996094 L 31.927734 26.955078 A 5.50055 5.50055 0 0 1 31.984375 26.955078 A 5.50055 5.50055 0 0 1 32.005859 26.955078 L 38.796875 26.914062 C 39.518854 26.858577 43.063008 26.670515 47.083984 28.117188 C 49.325421 28.923614 51.842741 30.322397 53.818359 32.771484 C 55.700814 35.10508 56.871059 38.334285 56.978516 41.923828 C 56.983242 41.782124 57 41.642474 57 41.5 C 57 37.69628 55.793978 34.265494 53.818359 31.816406 C 51.842741 29.367319 49.325421 27.968536 47.083984 27.162109 C 43.063008 25.715437 39.518854 25.903499 38.796875 25.958984 L 32.005859 26 A 5.50055 5.50055 0 0 0 31.984375 26 A 5.50055 5.50055 0 0 0 31.927734 26 L 25.023438 26.041016 A 5.50055 5.50055 0 0 0 24.783203 26.048828 C 24.783203 26.048828 22.461187 26.078427 20.525391 25.429688 C 19.557488 25.105324 18.863359 24.659135 18.539062 24.300781 C 18.266631 23.999739 18.080838 23.761918 18.025391 22.978516 z M 45.978516 42.068359 C 45.937288 42.457691 45.834846 42.474488 45.65625 42.652344 C 45.414955 42.892638 44.727644 43.306768 43.746094 43.580078 C 41.782993 44.126698 39.384766 44.017578 39.384766 44.017578 A 5.50055 5.50055 0 0 0 38.943359 44 L 18.150391 44 A 5.50055 5.50055 0 0 0 12.597656 49.949219 A 5.50055 5.50055 0 0 1 18.150391 44.955078 L 38.943359 44.955078 A 5.50055 5.50055 0 0 1 39.384766 44.972656 C 39.384766 44.972656 41.782993 45.081776 43.746094 44.535156 C 44.727644 44.261846 45.414955 43.847716 45.65625 43.607422 C 45.897545 43.367127 46 43.42925 46 42.455078 C 46 42.303048 45.983955 42.2034 45.978516 42.068359 z"/>
 <path style="fill:#ffd56a;fill-rule:evenodd" d="M 31.462891 3 A 2.5 2.4971915 0 0 0 29 5.5332031 L 29 26 L 34 26 L 34 5.5332031 A 2.5 2.4971915 0 0 0 31.462891 3 z M 29 37 L 29 58.466797 A 2.5 2.4971915 0 1 0 34 58.466797 L 34 37 L 29 37 z"/>
 <path style="opacity:0.2;fill:#f4f4f7;fill-rule:evenodd" d="M 31.462891 3 A 2.5 2.4971915 0 0 0 29 5.5332031 L 29 6.5332031 A 2.5 2.4971915 0 0 1 31.462891 4 A 2.5 2.4971915 0 0 1 34 6.5332031 L 34 5.5332031 A 2.5 2.4971915 0 0 0 31.462891 3 z"/>
 <rect style="opacity:0.2" width="5" height="1" x="29" y="37"/>
</svg>

<svg xmlns="http://www.w3.org/2000/svg" width="64" height="64"><path style="opacity:.2;fill-rule:evenodd" d="M31.463 4A2.5 2.497 0 0 0 29 6.532v52.935a2.5 2.497 0 1 0 5 0V6.532A2.5 2.497 0 0 0 31.462 4z"/><path style="opacity:.2" d="m25.057 8.955.29.008s-3.956-.295-8.302 1.147c-2.173.72-4.622 1.923-6.656 4.164C8.355 16.514 7 19.848 7 23.455c0 3.608 1.355 6.939 3.385 9.182 2.03 2.243 4.473 3.452 6.644 4.18 4.342 1.455 8.301 1.174 8.301 1.174l-.242.006 6.906-.042a5.5 5.5 0 0 0 .022 0 5.5 5.5 0 0 0 .056 0l6.905-.04a5.5 5.5 0 0 0 .406-.018s2.181-.076 3.976.57c.898.323 1.52.742 1.899 1.211.378.47.742 1.057.742 2.777 0 .975-.102.913-.344 1.153-.241.24-.928.654-1.91.928-1.963.546-4.361.437-4.361.437a5.5 5.5 0 0 0-.442-.018H18.15a5.5 5.5 0 1 0 0 11h20.793l-.44-.017s3.88.395 8.194-.807c2.158-.6 4.61-1.624 6.723-3.728 2.113-2.104 3.58-5.418 3.58-8.948 0-3.803-1.206-7.234-3.182-9.683-1.975-2.45-4.493-3.848-6.734-4.654-4.483-1.613-8.58-1.186-8.58-1.186l.408-.018-6.906.041a5.5 5.5 0 0 0-.022 0 5.5 5.5 0 0 0-.056 0l-6.905.042a5.5 5.5 0 0 0-.24.007s-2.322.03-4.258-.619c-.968-.324-1.662-.77-1.986-1.129-.324-.358-.539-.574-.539-1.8 0-1.227.215-1.435.535-1.788.32-.352 1.009-.796 1.975-1.117 1.932-.641 4.254-.603 4.254-.603a5.5 5.5 0 0 0 .293.007H45.5a5.5 5.5 0 1 0 0-11H25.057z"/><path style="fill:none;stroke:#ff990f;stroke-width:11;stroke-linecap:round;stroke-linejoin:round" d="m32.04 31.5 6.904-.041S51.5 30.452 51.5 41.5c0 9.008-12.556 8-12.556 8H18.151m13.81-18-6.905.041S12.5 32.167 12.5 22.5s12.556-9 12.556-9H45.5"/><path style="opacity:.1;fill:#f4f4f7" d="M24.662 7.984c-1.317-.015-4.358.089-7.617 1.17-2.173.721-4.622 1.923-6.656 4.164C8.355 15.56 7 18.893 7 22.5c0 .16.016.317.021.477.115-3.422 1.424-6.563 3.368-8.704 2.034-2.24 4.483-3.443 6.656-4.164 3.983-1.322 7.492-1.186 8.074-1.154H45.5a5.5 5.5 0 0 1 5.553 5.05A5.5 5.5 0 0 0 45.5 8H25.12c-.107-.006-.165-.012-.458-.016zM18.025 22.98c-.01.148-.025.28-.025.476 0 1.226.215 1.443.54 1.8.323.36 1.017.805 1.985 1.13 1.936.649 4.258.619 4.258.619a5.5 5.5 0 0 1 .24-.008l6.905-.04a5.5 5.5 0 0 1 .056 0 5.5 5.5 0 0 1 .022 0l6.79-.042c.723-.055 4.267-.243 8.288 1.203 2.241.807 4.759 2.205 6.734 4.654 1.883 2.334 3.053 5.563 3.16 9.153.005-.142.022-.282.022-.424 0-3.804-1.206-7.235-3.182-9.684-1.975-2.449-4.493-3.847-6.734-4.654-4.021-1.447-7.565-1.259-8.287-1.203L32.006 26a5.5 5.5 0 0 0-.022 0 5.5 5.5 0 0 0-.056 0l-6.905.041a5.5 5.5 0 0 0-.24.008s-2.322.03-4.258-.62c-.968-.324-1.662-.77-1.986-1.128-.272-.301-.458-.54-.514-1.322zm27.954 19.09c-.042.389-.144.405-.323.583-.241.24-.928.655-1.91.928-1.963.547-4.361.438-4.361.438a5.5 5.5 0 0 0-.442-.018H18.15a5.5 5.5 0 0 0-5.552 5.95 5.5 5.5 0 0 1 5.552-4.995h20.793a5.5 5.5 0 0 1 .442.018s2.398.109 4.361-.438c.982-.273 1.669-.687 1.91-.928.242-.24.344-.178.344-1.152 0-.152-.016-.252-.021-.387z"/><path style="fill:#ffd56a;fill-rule:evenodd" d="M31.463 3A2.5 2.497 0 0 0 29 5.533V26h5V5.533A2.5 2.497 0 0 0 31.463 3zM29 37v21.467a2.5 2.497 0 1 0 5 0V37h-5z"/><path style="opacity:.2;fill:#f4f4f7;fill-rule:evenodd" d="M31.463 3A2.5 2.497 0 0 0 29 5.533v1A2.5 2.497 0 0 1 31.463 4 2.5 2.497 0 0 1 34 6.533v-1A2.5 2.497 0 0 0 31.463 3z"/><path style="opacity:.2" d="M29 37h5v1h-5z"/></svg>
